X:1
T:Winterreise, D.911
T:Das Wirtshaus
T:Winterreise, D.911
T:21. Das Wirtshaus
T:Franz Schubert
T:Wilhelm Müller
T:Creative Commons copyright waiver (CC0 1.0 Universal) 
T:Creative Commons copyright waiver (CC0 1.0 Universal) 
T:Creative Commons copyright waiver (CC0 1.0 Universal) 
T:Creative Commons copyright waiver (CC0 1.0 Universal) 
C:Franz Schubert
Z:Wilhelm Müller
Z:Creative Commons copyright waiver (CC0 1.0 Universal)
Z:
%%score 1 { ( 2 6 7 ) | ( 3 4 5 ) }
L:1/8
Q:1/4=30
M:4/4
K:F
V:1 treble nm="Singstimme" snm="Sing."
V:2 treble nm="Pianoforte" snm="Pno."
V:6 treble 
V:7 treble 
V:3 bass 
V:4 bass 
V:5 bass 
V:1
"^Sehr langsam" z8 | z8 | z8 | z8 | z4 z2!p! z G | A3/2 A/ B A A2 G G | G3/2 G/ A ^F G2 z G | %7
w: ||||Auf|ei- nen To- dten- ac- ker hat|mich mein Weg ge- bracht. All-|
 =F3/2 F/ F{A} G F2 E G | A B c3/2 E/ F2 z2 | z8 | z4 z2 z G | A3/2 A/ B A A2 G G | %12
w: hier will ich ein- keh- ren, hab|ich bei mir ge- dacht.||Ihr|grü- nen To- dten- krän- ze, könnt|
 G3/2 G/ A ^F G2 z G | =F3/2 F/ F (A/G/) F2 E G | A B c3/2 E/ F2 z2 | z8 | z4 z2 z c | %17
w: wohl die Zei- chen sein, die|mü- de Wand- rer * la- den ins|küh- le Wirts- haus ein.||Sind|
 c3/2 c/ A F F2 B d | d3/2 c/ A c G2 z c | f3/2 c/ A c F2 B _d | _d3/2 c/ A c G2 z2 | z4 z2 z G | %22
w: denn in die- sem Hau- se die|Kam- mern all' be- setzt? bin|matt zum Nie- der- sin- ken, bin|töd- lich schwer ver- letzt.|O|
 _A3/2 A/ B A A2 G A | B3/2 B/ c G _A2 z c | c3/2 c/"^cresc." c (_e/d/) c2 =B c | %25
w: un- barm- herz- ge Schen- ke, doch|wei- sest du mich ab? Nun|wei- ter denn, nur _ wei- ter, mein|
 =A _B c3/2 E/ F2 z =B |"^cresc." c3/2 c/ c (f/d/) c2 =B c | A c{c} B{A} G F2 z2 | z8 | z8 | %30
w: treu- er Wan- der- stab, nun|wei- ter denn, nur _ wei- ter, mein|treu- er Wan- der- stab!|||
 !fermata!z8 |] %31
w: |
V:2
!pp! (.[A,CA]2 .[G,CG].[F,CF]) (.[A,CA]2 .[G,CG].[F,CF]) | %1
 ([E,CE]2 [F,CF][A,CFA]) ([A,CFA]2 [G,CEG]) z | %2
"_cresc." (!>![A,CA]2 [G,CG][F,CF]) (!>![C_EA]2 [B,EG][A,EF]) | %3
 ([B,_EF]!<(![DFB]!<)!!>(![CE^FA]!>)![B,DG])!p! (([C=F]2 [B,=E]2)) | (!turn!D>E ^C2)!>(! =C4!>)! | %5
 ([CFA]2 [DFB][CFA]) ([CFA]2 [CEG][C_EG]) | ([B,DG]2 [CDA][A,D^F]) ([B,DG]dB[DG]) | %7
 [D=F]2 (.[B,_DF].[B,DG]) (([A,CF]2 [G,CE]))[EG] | ([FA][FB][FA]>[EG]) F2 (CF) | %9
 (!>![A,CA]2 [G,CG][F,CF])"_cresc." (!>![C_EA]2 [B,EG][A,EF]) | %10
 ([B,_EF]!<(![DFB]!<)!!>(![CE^FA]!>)![B,DG])!p! (([C=F]2 [C=E])) z |!pp! (A2 BA) (c3 _e) | %12
 d3 d (dBG[GB]) | (d3 [_DG_d]) c3 [EGc] | ([FAf][FBf][Fcf]>[Gcg]) [Fcf]2 (cf) | %15
!<(! ([Aa]2 [Gg][Ff])!<)!!>(! ([Aa]2 [Gg][Ff])!>)! | ([Ff][Bb][Aa][Gg]) (([=F=f]2 [=Ee])) [_Ec] | %17
 c2 AF F2 Bd | (d>c) Ac G3 [Ac] |!>(! [Ac]3!>)! [Ac] cB/A/ B_d | _d>c Ac G3 G | %21
!<(! (.[FG].[FG].[FG].[F_A])!<)!!>(! (([FA]2 [EG]))!>)![CEG] | %22
 ([CF_A]2 [_DFB][CFA]) (([CFA]2 [CEG]))[CFA] | ([_DGB]2 [_EGc][=B,EG]) [CE_A][CE][CEA][EAc] | %24
 [_EGc]2"_cresc." ([E_Ac][FAd]) ([EGc]2 [DG=B])[Gc] | %25
!p! [F=A][F_B][FA]>[EG] F[CF_A][CG]!<(![FG=B]!<)! | %26
"_cresc." [_EGc]2 ([E_Ac][FAd]) ([EGc]2 [DG=B])[Gc] | ([F=A][_E^Fc][DGB][B,=EG]) [A,=F]2 (CF) | %28
 (!>![A,CA]2 [G,CG][F,CF]) (!>![C_EA]2 [B,EG][A,EF]) | %29
 ([B,_EF][DFB][CE^FA][B,DG] [C=F]2 [B,C=E]2) | !fermata![A,CF]8 |] %31
V:3
 (.[F,,C,]2 .[F,,B,,C,].[F,,A,,C,]) (.[F,,C,]2 .[F,,B,,C,].[F,,A,,C,]) | %1
 [C,,G,,C,]2 [C,,A,,C,][C,,F,,C,] [C,,C,]3 z | %2
 [F,,C,]2 [F,,B,,C,][F,,A,,C,] [F,,C,_E,F,]2 [F,,C,E,F,][F,,C,E,F,] | %3
 (_E,D,[E,^F,][D,G,]) [C,A,]2 [^C,G,]2 |!pp! ([D,F,]2 [A,,E,]2) [C,E,G,]4 | %5
 [F,,F,]3 [F,,F,] [C,,C,]3 [C,,C,] | [D,,D,]3 [D,,D,] [G,,G,]3 [G,B,] | %7
 [B,,B,]2 (.B,,.B,,) C,3 [C,C] | ([_E,C][D,B,][C,C]>[C,B,]) [F,A,]2 z2 | %9
 [F,,C,]2 [F,,B,,C,][F,,A,,C,] [F,,C,_E,F,]2 [F,,C,E,F,][F,,C,E,F,] | %10
 (_E,D,[E,^F,][D,G,]) (([C,A,]2 [C,G,])) z | (C2 DC) C3 C | (B,2 CA,) [G,B,]3 [G,B,] | %13
 B,3 [B,,B,] (A,2 G,) [C,C] | (CB,A,>B,) A,2 (CF) | [F,C]2 [F,B,C][F,A,C] [F,C_E]2 [F,B,E][F,A,E] | %16
 _ED[E^F]D (C2 C) A, | A,2 CA, B,3 G, | A,2 F,A, C3 [F,_E] | _E3 E D>^C DB, | %20
 [F,A,]2 F,A, C3 [C,G,] | (.[=B,,G,].[B,,G,].[B,,G,].[B,,_A,]) (([C,A,]2 [C,G,])) C, | %22
 [F,,F,]3 [F,,F,] C,3 F, | _E,3 E, _A,3 _A,,/B,,/ | C,2 _A,F, G,3 [=E,C] | %25
 [F,C][D,B,][C,C]>[C,B,] [F,A,][F,_A,][_E,G,][D,G,] | [C,G,]2 (_A,F,) G,3 [=E,C] | %27
 [F,C](A,,B,,C,) F,,2 z2 | ([F,,C,]2 [F,,B,,C,][F,,A,,C,]) ([F,,C,_E,F,]2 [F,,C,E,F,][F,,C,E,F,]) | %29
 F,2 ^F, x x4 | !fermata![F,,C,F,]8 |] %31
V:4
 x8 | x8 | x8 | B,,4 x4 | x8 | x8 | x8 | x8 | x8 | x8 | B,,4 x4 | =F,3 F, C,3 C, | D,3 D, x4 | %13
 B,,3 x C,3 x | _E,D,C,>C, F,2 z2 | x8 | B,2 B,B, [C,A,]2 [C,G,]=F, | F,3 F, F,3 F, | F,2 x2 x4 | %19
 F,3 F, F,3 F, | x8 | x8 | x8 | x8 | x8 | x8 | x8 | x8 | x8 | _E,D,E,[D,G,] x4 | x8 |] %31
V:5
 x8 | x8 | x8 | F,2 x2 x4 | x8 | x8 | x8 | x8 | x8 | x8 | F,2 x2 x4 | x8 | x8 | x8 | x8 | x8 | x8 | %17
 x8 | x8 | x8 | x8 | x8 | x8 | x8 | x8 | x8 | x8 | x8 | x8 | B,,3 B,, [C,A,]2 [C,G,]2 | x8 |] %31
V:6
 x8 | x8 | x8 | x8 | A,4 B,4 | x8 | x8 | x8 | x8 | x8 | x8 | F3 F ([FA]2 [EG])[_EG] | %12
 (G2 A)^F [DG]2 z D | =F3 x (F2 E) x | x8 | x8 | x8 | _E3 E ED/^C/ D=E | F3 F E3 F | F2 _GF F3 =E | %20
 F2 F2 E3 E | x8 | x8 | x8 | x8 | x8 | x8 | x8 | x8 | x8 | x8 |] %31
V:7
 x8 | x8 | x8 | x8 | x8 | x8 | x8 | x8 | x8 | x8 | x8 | x8 | D3 D x4 | D3 x C3 x | x8 | x8 | x8 | %17
 x8 | x8 | x8 | x8 | x8 | x8 | x8 | x8 | x8 | x8 | x8 | x8 | x8 | x8 |] %31

